public/avatar/shoe/125.svg

<svg xmlns:xlink="http://www.w3.org/1999/xlink" height="38.3" width="36.05" xmlns="http://www.w3.org/2000/svg"><use height="16.8" transform="translate(10.35 10.9)" width="21.95" xlink:href="#a"/><defs><g id="a" fill-rule="evenodd"><path d="M5.15-2.1Q6.9.35 7.75 4.3 9 6.1 8.2 7.55q-.35.65-5.25 2.7-5.5 2.3-8.35 2.45-2.65.2-5.45-.9-2.5-.9-2.35-1.25l.15-1.2q.45-2.45 2-3.9l2.95-2.7 1.95-2.2 2.1-3.3Q-2.35-4.1.7-3.95q3.2.1 4.45 1.85" transform="translate(13.45 3.95)"/><path d="M7.9 8.5q-4.2 2.7-9.85 3.8l-5.2.55q-4.85 0-5.9-1.05-.7-.8-.1-1.8l-.05.55q-.05.3 2.1 1.2 2.5.95 4.95.95h.75q2.75-.15 7.85-2.25Q6.9 8.65 8.1 7.7l-.2.8" fill="#0d0d0d" transform="translate(13.45 3.95)"/><path d="M2.45 10.45q-5.1 2.1-7.85 2.25h-.75q-2.45 0-4.95-.95-2.15-.9-2.1-1.2l.05-.55.05-.05 1.1.05v.15l4.45.4q8.5 0 14.9-4.55l-.05-.05.15-.05.65 1.8q-1.2.95-5.65 2.75" transform="translate(13.45 3.95)"/><path d="M8 6Q.45 10.5-9.9 10.5l-2.8-.1q.4-3.3 2.35-4.15Q2.35 6.2 6.3 2.4L8 6" fill="#f2f2f2" transform="translate(13.45 3.95)"/><path d="M-4.3-1.1q.45-1.65 4.1-2.1 1.85-.25 4.3.8.85.45 2.55 5.5Q3.4 6.1 1.5 7l-13.2.55 1.2-1.6L-7.05 3Q-4.85.55-4.3-1.1" fill="#fff" transform="translate(13.45 3.95)"/><path d="M.7 8.95q5-1.85 6.85-3.45l.45.65-.15 1.15Q6.7 9.6-1.9 11.25l-7.6.3-2.95-.5.2-1.45q7.9 1.2 12.95-.65" fill="#fff" transform="translate(13.45 3.95)"/><path d="m4.85 8.45-.2-2.75q0-.85.5-1.15l1.25-.7h.25l.7 1.8L6.3 7.7l-1.45.75" fill="#c7bda6" transform="translate(13.45 3.95)"/><path d="M7.45 6.85Q5.1 10.5-3.45 11 7.35 8.85 6.7 3.95q1.5 2.4.75 2.9" fill="#8c8575" transform="translate(13.45 3.95)"/><path d="m-7.8 6.55 3.9-.15-2.75 2.65 4.2 1.85q-1.35 1.1-4.75.85l-4.65-1 1.45-2 2.6-2.2" fill="#ffa600" transform="translate(13.45 3.95)"/><path d="m-5.4 9.95-2.95 1.4-3.9-.25-.2-.1q-.6-.7-.25-1 .45-1.95.85-2.6l1.2-1.25 1.05.3 1.8.1 2.05.6q-.6.65-1.6 1.15-1.2.6-2.15.6.6.45 1.1.85l3 .2" fill="#ff4c00" transform="translate(13.45 3.95)"/><path d="M7 3.4Q3.7 5.25.45 5.7l-8 .5-2.7-.3L-.5 5q3.4-.55 7-2.45l.5.85" transform="translate(13.45 3.95)"/><path d="m5.5 2.15.7.5L3.5 3.9l-.25-1.85 2.25.1" fill="#c7bda6" transform="translate(13.45 3.95)"/><path d="m-3.85-1.1-.65-1.05.6-.3.45.8q.75 1 2.3 1.75 2.5 1.2 7.6 1.5l.25.55-1.1.25Q1 2.05-1.4.8-2.9.05-3.85-1.1" transform="translate(13.45 3.95)"/><path d="m4.5-2.3.35.45Q4.15.75 0 2.35q-2.5 1.05-5.55 1.4l-2.6.25.45-.75L-.3 1.6Q3.35.25 4.5-2.3" transform="translate(13.45 3.95)"/><path d="m4.15.35.7-1.1.7 1.95-2.4-.15 1-.7" fill="#c7bda6" transform="translate(13.45 3.95)"/><path d="m.15-1.2-3.4-.95.55-.45q.9-.5 2.65-.6 2.75-.15 4.1.75.6.3 0 .6-1.65.8-3.9.65" fill="#8c8575" transform="translate(13.45 3.95)"/><path d="m-8.9 6.9-.8.8-2.45 1.45.4-.75 1.15-1.7 1.7.2" fill="#ffc7c7" transform="translate(13.45 3.95)"/></g></defs></svg>

<?xml version="1.0" encoding="UTF-8" standalone="no"?>
<svg xmlns:xlink="http://www.w3.org/1999/xlink" height="38.3px" width="36.05px" xmlns="http://www.w3.org/2000/svg">
  <g transform="matrix(1.0, 0.0, 0.0, 1.0, 23.8, 14.85)">
    <use height="16.8" transform="matrix(1.0, 0.0, 0.0, 1.0, -13.45, -3.95)" width="21.95" xlink:href="#shape0"/>
  </g>
  <defs>
    <g id="shape0" transform="matrix(1.0, 0.0, 0.0, 1.0, 13.45, 3.95)">
      <path d="M5.15 -2.1 Q6.9 0.35 7.75 4.3 9.0 6.1 8.2 7.55 7.85 8.2 2.95 10.25 -2.55 12.55 -5.4 12.7 -8.05 12.9 -10.85 11.8 -13.35 10.9 -13.2 10.55 L-13.05 9.35 Q-12.6 6.9 -11.05 5.45 L-8.1 2.75 -6.15 0.55 -4.05 -2.75 Q-2.35 -4.1 0.7 -3.95 3.9 -3.85 5.15 -2.1" fill="#000000" fill-rule="evenodd" stroke="none"/>
      <path d="M7.9 8.5 Q3.7 11.2 -1.95 12.3 L-7.15 12.85 Q-12.0 12.85 -13.05 11.8 -13.75 11.0 -13.15 10.0 L-13.2 10.55 Q-13.25 10.85 -11.1 11.75 -8.6 12.7 -6.15 12.7 L-5.4 12.7 Q-2.65 12.55 2.45 10.45 6.9 8.65 8.1 7.7 L7.9 8.5" fill="#0d0d0d" fill-rule="evenodd" stroke="none"/>
      <path d="M2.45 10.45 Q-2.65 12.55 -5.4 12.7 L-6.15 12.7 Q-8.6 12.7 -11.1 11.75 -13.25 10.85 -13.2 10.55 L-13.15 10.0 -13.1 9.95 -12.0 10.0 -12.0 10.15 -7.55 10.55 Q0.95 10.55 7.35 6.0 L7.3 5.95 7.45 5.9 8.1 7.7 Q6.9 8.65 2.45 10.45" fill="#000000" fill-rule="evenodd" stroke="none"/>
      <path d="M8.0 6.0 Q0.45 10.5 -9.9 10.5 L-12.7 10.4 Q-12.3 7.1 -10.35 6.25 2.35 6.2 6.3 2.4 L8.0 6.0" fill="#f2f2f2" fill-rule="evenodd" stroke="none"/>
      <path d="M-4.3 -1.1 Q-3.85 -2.75 -0.2 -3.2 1.65 -3.45 4.1 -2.4 4.95 -1.95 6.65 3.1 3.4 6.1 1.5 7.0 L-11.7 7.55 -10.5 5.95 -7.05 3.0 Q-4.85 0.55 -4.3 -1.1" fill="#ffffff" fill-rule="evenodd" stroke="none"/>
      <path d="M0.7 8.95 Q5.7 7.1 7.55 5.5 L8.0 6.15 7.85 7.3 Q6.7 9.6 -1.9 11.25 L-9.5 11.55 -12.45 11.05 -12.25 9.6 Q-4.35 10.8 0.7 8.95" fill="#ffffff" fill-rule="evenodd" stroke="none"/>
      <path d="M4.85 8.45 L4.65 5.7 Q4.65 4.85 5.15 4.55 L6.4 3.85 6.65 3.85 7.35 5.65 6.3 7.7 4.85 8.45" fill="#c7bda6" fill-rule="evenodd" stroke="none"/>
      <path d="M7.45 6.85 Q5.1 10.5 -3.45 11.0 7.35 8.85 6.7 3.95 8.2 6.35 7.45 6.85" fill="#8c8575" fill-rule="evenodd" stroke="none"/>
      <path d="M-7.8 6.55 L-3.9 6.4 -6.65 9.05 -2.45 10.9 Q-3.8 12.0 -7.2 11.75 L-11.85 10.75 -10.4 8.75 -7.8 6.55" fill="#ffa600" fill-rule="evenodd" stroke="none"/>
      <path d="M-5.4 9.95 L-8.35 11.35 -12.25 11.1 -12.45 11.0 Q-13.05 10.3 -12.7 10.0 -12.25 8.05 -11.85 7.4 L-10.65 6.15 -9.6 6.45 -7.8 6.55 -5.75 7.15 Q-6.35 7.8 -7.35 8.3 -8.55 8.9 -9.5 8.9 -8.9 9.35 -8.4 9.75 L-5.4 9.95" fill="#ff4c00" fill-rule="evenodd" stroke="none"/>
      <path d="M7.0 3.4 Q3.7 5.25 0.45 5.7 L-7.55 6.2 -10.25 5.9 -0.5 5.0 Q2.9 4.45 6.5 2.55 L7.0 3.4" fill="#000000" fill-rule="evenodd" stroke="none"/>
      <path d="M5.5 2.15 L6.2 2.65 3.5 3.9 3.25 2.05 5.5 2.15" fill="#c7bda6" fill-rule="evenodd" stroke="none"/>
      <path d="M-3.85 -1.1 L-4.5 -2.15 -3.9 -2.45 -3.45 -1.65 Q-2.7 -0.65 -1.15 0.1 1.35 1.3 6.45 1.6 L6.7 2.15 5.6 2.4 Q1.0 2.05 -1.4 0.8 -2.9 0.05 -3.85 -1.1" fill="#000000" fill-rule="evenodd" stroke="none"/>
      <path d="M4.5 -2.3 L4.85 -1.85 Q4.15 0.75 0.0 2.35 -2.5 3.4 -5.55 3.75 L-8.15 4.0 -7.7 3.25 -0.3 1.6 Q3.35 0.25 4.5 -2.3" fill="#000000" fill-rule="evenodd" stroke="none"/>
      <path d="M4.15 0.35 L4.85 -0.75 5.55 1.2 3.15 1.05 4.15 0.35" fill="#c7bda6" fill-rule="evenodd" stroke="none"/>
      <path d="M0.15 -1.2 L-3.25 -2.15 -2.7 -2.6 Q-1.8 -3.1 -0.05 -3.2 2.7 -3.35 4.05 -2.45 4.65 -2.15 4.05 -1.85 2.4 -1.05 0.15 -1.2" fill="#8c8575" fill-rule="evenodd" stroke="none"/>
      <path d="M-8.9 6.9 L-9.7 7.7 -12.15 9.15 -11.75 8.4 -10.6 6.7 -8.9 6.9" fill="#ffc7c7" fill-rule="evenodd" stroke="none"/>
    </g>
  </defs>
</svg>
